X:1
T:Title
%%score 1 { 2 | 3 }
L:1/8
Q:1/4=110
M:4/4
K:G
V:1 treble nm="Grand Piano, Soprano"
V:2 bass nm="Choir Pad, Bass"
V:3 bass 
V:1
 D2 G2- G/ z/ G B2- | BB d6 | d2 [Fd]2 [FA]2 [FB]2 | [Fc]2 [Gc]2 [GB]2 z2 | %4
w: By~Florence~W.~Williams * * * *||||
 [B,D]2 [CD]2- [CD][CE] [CF]2- | [CF][CE] [B,D]2 [B,G]2 [DB]2 | [DB]2 [^CA]2- [CA][CB] [CA]2- | %7
w: |||
 [CA][^CB] [DA]2 [Fd]4 | [Dc]2 [^CA]2- [CA][CG] [CF]2 | [^CE]2 [CE]2 D2 z2 | %10
w: |||
 D2 [DG]2- [DG][DG] [DA]2- | [DA][DA] [DB]2 [=FB]2 [Ec]2 | [Ee]2 [Gd]2- [Gd][GB] [GB]2 | %13
w: |||
 [Gc]2 [FA]2- [FA][DG] [DG]2 | D2 [B,G]2- [B,G][A,F] [B,G]2- | %15
w: ||
 [B,G][CA] [DB]2- [DB][^C_B] [D=B]2- | [DB][Ec] [CA]2- [CA][B,^G] [CA]2- | %17
w: ||
 [CA][DB] [B,G]2- [B,G][A,F] [B,G]2- | [B,G][B,D] [B,G]2- [B,G][B,G] [CA]2- | %19
w: ||
 [CA][CA] [DGB]2- [DGB][DGB] [CGc]2 | [^CG^c]2 [DGBd]2- [DGBd][EG=ce] [DGd]2 | %21
w: ||
 [DGB]2 [CFA]2- [CFA][B,DG] [B,DG]2- | [B,DG]6 z2 |] %23
w: ||
V:2
 D,2 G,2- G,/ z/ G, B,2- | B,B,[K:treble] D6 | D2 D2 D2 D2 | D2 E2 D2 z2 | G,2 F,2- F,F, A,2- | %5
 A,F, G,2 G,2 G,2 | G,2 G,2- G,G, G,2- | G,G, F,2 A,4 | G,2 E,2- E,E, A,2 | G,2 F,2 F,2 z2 | %10
 F,2 G,2- G,G, F,2- | F,F, G,2 G,2 G,2 | G,2 B,2- B,[K:treble]D D2 | E2 C2- C[K:bass]B, B,2 | %14
 z2 G,2 D,2 G,2 | D,2 G,2 D,2 G,2 | D,2 F,2 D,2 F,2 | D,2 G,2 D,2 G,2 | D,2 G,2 G,2 F,2 | %19
 F,2 F,2 F,2 E,2 | ^D,2 =D,2 C,2 B,,2 | G,2 D,2- D,G,, G,,2- | G,,6 z2 |] %23
V:3
 z8 | z8 | z2 D,2 D,2 D,2 | D,2 G,2 G,2 z2 | z2 D,2- D,D, D,2- | D,D, G,,2 G,,2 G,,2 | %6
 G,,2 G,,2- G,,G,, G,,2- | G,,G,, D,2 D,4 | G,,2 A,,2- A,,A,, A,,2 | A,,2 D,2 D,2 z2 | %10
 C,2 B,,2- B,,B,, D,2- | D,D, z2 z2 C,2 | C,2 D,2- D,D, D,2 | D,2 D,2- D,G, G,2 | %14
 z2 G,,2 D,,2 G,,2 | D,,2 G,,2 D,,2 G,,2 | D,,2 F,,2 D,,2 E,,2 | D,,2 G,,2 D,,2 G,,2 | %18
 D,,2 G,,2 G,,2 F,,2 | F,,2 F,,2 F,,2 E,,2 | ^D,,2 =D,,2 C,,2 B,,,2 | G,,2 D,,2- D,,G,,, G,,,2- | %22
 G,,,6 z2 |] %23

